X: 183
T: Trip to the Dargle
N: Third dance in the Irish Lilt series.
B: 204 Favourite Country Dances
N: Published by Straight & Skillern, London ca.1775
F: http://imslp.org/wiki/204_Favourite_Country_Dances_(Various) p.92 #183
Z: 2014 John Chambers <jc:trillian.mit.edu>
N: This tune is a variant of Haste to the Wedding.
M: 6/8
L: 1/8
K: D
% - - - - - - - - - - - - - - - - - - - - - - - - -
A |\
A<FG A2f | e>de f<dB | AGA (B/c/d)F | [E2A,2][EA,] [E2A,2]A |\
A<FG A2f | e>de f<dB | "_+"AFA (B/c/d)F | [D2G,2][DG,] [D2G,2] :|
|: a |\
a<fa a<fb | b<gb b<ga | a<fa a>gf | e2e e2f/g/ |\
a3 f3 | e>de f<dB | AFA (f/g/a)f | d2d d2 :|
% - - - - - - - - - - - - - - - - - - - - - - - - -
%%begintext align
%% Cast off one Cu. and foot it 6 sideways .|
%% cast off another Cu. and foot it Six again .|.
%% lead up to the top and cast off :|. foot it
%% outsides and turn your Partner :|:
%%endtext

%%sep 1 1 500
%%sep 1 1 500
